svgs/solid/code-merge.svg

<svg xmlns="http://www.w3.org/2000/svg" viewBox="0 0 448 512"><!-- Font Awesome Pro 6.0.0-alpha2 by @fontawesome - https://fontawesome.com License - https://fontawesome.com/license (Commercial License) --><path d="M368 192C335.213 192 307.109 211.766 294.754 240H224C170.43 240 125.631 202.133 114.67 151.797C141.41 138.852 160 111.703 160 80C160 35.816 124.184 0 80 0C35.818 0 0 35.816 0 80C0 112.789 19.771 140.891 48 153.246V358.754C19.771 371.109 0 399.211 0 432C0 476.184 35.818 512 80 512C124.184 512 160 476.184 160 432C160 399.211 140.232 371.109 112 358.754V263.656C142.451 288.844 181.488 304 224 304H294.754C307.109 332.234 335.213 352 368 352C412.184 352 448 316.184 448 272S412.184 192 368 192ZM80 56C93.234 56 104 66.766 104 80S93.234 104 80 104C66.768 104 56 93.234 56 80S66.768 56 80 56ZM80 456C66.768 456 56 445.234 56 432S66.768 408 80 408C93.234 408 104 418.766 104 432S93.234 456 80 456ZM368 296C354.768 296 344 285.234 344 272S354.768 248 368 248C381.234 248 392 258.766 392 272S381.234 296 368 296Z"/></svg>

<svg xmlns="http://www.w3.org/2000/svg" viewBox="0 0 448 512"><!--! Font Awesome Pro 6.3.0 by @fontawesome - https://fontawesome.com License - https://fontawesome.com/license (Commercial License) Copyright 2023 Fonticons, Inc. --><path d="M80 104c-13.3 0-24-10.7-24-24s10.7-24 24-24s24 10.7 24 24s-10.7 24-24 24zm32.4 49.2c28-12.4 47.6-40.5 47.6-73.2c0-44.2-35.8-80-80-80S0 35.8 0 80c0 32.8 19.7 61 48 73.3V358.7C19.7 371 0 399.2 0 432c0 44.2 35.8 80 80 80s80-35.8 80-80c0-32.8-19.7-61-48-73.3V272c26.7 20.1 60 32 96 32h86.7c12.3 28.3 40.5 48 73.3 48c44.2 0 80-35.8 80-80s-35.8-80-80-80c-32.8 0-61 19.7-73.3 48H208c-49.9 0-91-38.1-95.6-86.8zM80 456c-13.3 0-24-10.7-24-24s10.7-24 24-24s24 10.7 24 24s-10.7 24-24 24zM392 272c0 13.3-10.7 24-24 24s-24-10.7-24-24s10.7-24 24-24s24 10.7 24 24z"/></svg>
